X: 5584
T: Bushland Dreaming
R: jig
M: 6/8
K: Dmajor
AF|:D2 F A>FD|B>cd A>FD|B>AG A>FD|G2F E2A|
D2F A>FD|B>cd A>FD|B>AG A>FD|E2G FED:|
|:d>ed d>cB|A2B F>ED|E2F G>FE|F2G A2A|
d>ed/c/ d>cB|A2B F>ED/E/|F>GA A>FD|E2G FED:|

